X:1
T:Menuett i Gm ur Hans Nielsen Balteruds notebok
B:Hans Nielsen Balteruds notebok, sid 98
R:Menuett
Z:Nils L
O:Norge
M:3/4
L:1/8
K:Gm
d2 g2 ^f2 | ga b2 d2 | c2 B2 A2 | B2 AB G2 | e2 e2 e2 | d2 g^f g2 | B2 cBAB | G6 ::
B2 d2 e2 | fedcBA | G2 g2 ^f2 | ((3gab) a4 "^Da capo" !segno!x :|

